X:1
T:Title
%%score { ( 1 3 5 ) | ( 2 4 ) }
L:1/8
M:2/4
K:C
V:1 treble nm="Grand Piano"
V:3 treble 
V:5 treble 
V:2 bass 
V:4 bass 
V:1
 z[Q:1/4=108] G G>A | z4 | z z/ G/ A>B | c2 z2 | [A,F-]4 | F2 z2 | [DF-]2 F2- | F2 z2 | C>D E>F | %9
 G4- |[M:3/16] [FG]3/2 |[M:3/8] GG>A |[M:2/4] z4 | z z/ G/ A>B | c2 z2 | [A,F-]4 | F2 z2 | %17
 [DF-]2 F2- | F2 z2 | C>D E>F | [DG]3- [DG]/[FG]/ | c>B A>G | c4 | G>F E>F | [CFA]4 | A2 z2 | %26
 B3- B/B/ | B>e d>c | [Ec]4- | [Ec]2 z2 | c2 z2 | c2 z2 | G2 E2 | G4- | G2 z2 | B2 A>G | BB G>A | %37
 G>F E>D | C3- C/C/ | E>E F>D | C3- C/-[CE]/ | G>G A>^F | [B,DG]4 | [CA]2 [DA]2 | B->[A,,B-] B>B | %45
 B>e d>c | [Ec]4- |[M:1/16] [Ec]/ |] %48
V:2
 z4 | [E,C]4- | [E,C]4 | z z/[K:treble] B/ A>G | C,4 | z z/[K:treble] F/ F>G | z2 C2 | %7
 z z/[K:treble] F/ E>D | [G,,E,G,]4 | [B,,G,]4- |[M:3/16] [B,,G,]3/2 |[M:3/8] z3 |[M:2/4] [E,C]4- | %13
 [E,C]4 | z z/[K:treble] B/ A>G | C,4 | z z/[K:treble] F/ F>G | z2 C2 | %18
 z z/[K:treble] F/ E>[K:bass]D | [G,,E,G,]4 | [B,,G,]4 | G,4- | [G,E]4 | [E,G,C]4 | %24
 z2 z z/[K:treble] A/ | z z/ A/[K:bass] z z/ G/ | G,,4 | [F,G,D]4 | G,4- | G,2 [F,B,D]2 | %30
 z2[K:treble] B>A | [C,G,]4 | C,4 | C2- [D,C-]2 | [E,C]4 | G,4 | F,4 | z2 [F,B,]2 | [C,E,G,]4 | %39
 [G,C]2- [G,,G,-C-]>[B,,G,C] | z2 D,2 | [C,E,C]2 [D,C]2 | z2 z z/ G/ | F,->[F,-A] F,->[F,G] | G,4 | %45
 D,2- [B,,D,]2 | [C,G,]4- |[M:1/16] [C,G,]/ |] %48
V:3
 x4 | G4- | G2 z2 | E4 | F,4- | [F,C]4 | A,4- | [A,B,]4 | x4 | D4 |[M:3/16] x3/2 |[M:3/8] x3 | %12
[M:2/4] G4- | G2 z2 | E4 | F,4- | [F,C]4 | A,4- | [A,B,]4 | x4 | x4 | E4 | z2 z z/ G/ | x4 | x4 | %25
 [CF]2- [CFA]2 | [B,D]4 | x4 | x4 | E,2 G>G | [CG]4 | E->[E-c] [E-G]>[EA] | E->[EF] z z/ F/ | %33
 z2 F,2 | z2 G>G | D4- | D4 | [A,C]2 z2 | x4 | x4 | [E,E-]2 E2 | x4 | x4 | x4 | D4 | F4 | x4 | %47
[M:1/16] x/ |] %48
V:4
 x4 | C,4 | x4 | [C,G,]4[K:treble] | x4 | A,,4[K:treble] | B,,4 | G,,4[K:treble] | x4 | x4 | %10
[M:3/16] x3/2 |[M:3/8] x3 |[M:2/4] C,4 | x4 | [C,G,]4[K:treble] | x4 | A,,4[K:treble] | B,,4 | %18
 G,,4[K:treble][K:bass] | x4 | x4 | C,4- | C,2 z2 | x4 | F,,4[K:treble] | D,2[K:bass] A,,2 | x4 | %27
 x4 | C,4 | x4 | E,4[K:treble] | x4 | A,,2 G,,2 | [C,E,]2 z2 | x4 | G,,4- | G,,4 | G,,4 | x4 | %39
 C,2 z2 | A,,4 | x4 | G,,4 | F,,2 A,,2 | G,,2 z2 | G,,2 z2 | x4 |[M:1/16] x/ |] %48
V:5
 x4 | x4 | G,,4 | x4 | x4 | x4 | x4 | x4 | x4 | x4 |[M:3/16] x3/2 |[M:3/8] x3 |[M:2/4] x4 | G,,4 | %14
 x4 | x4 | x4 | x4 | x4 | x4 | x4 | x4 | z2 D,2 | x4 | x4 | x4 | x4 | x4 | x4 | x4 | x4 | x4 | x4 | %33
 x4 | G,4 | x4 | x4 | x4 | x4 | x4 | x4 | x4 | x4 | x4 | z2 B,,2 | x4 | x4 |[M:1/16] x/ |] %48

